X: 1899
T: The Strathspey Polka Mazurka
B: australian traditional tunes wiki
M:3/4
L:1/8
R: Polka Mazurka
Q: 1/4=100
K:G
V:1 
|:D>G|"G"B2B>B "D7"c>e|"G"d2d>d g>d|B2B>c d>B|1G2G2:|2G2G2g>d||
"C"e2e>f (3gfe|"G"d2d2G>B|"C"e2e>f (3gfe|"G"d2d>d g>d|
B2B>B d>B|G2G2D>G|B2B>B "D7"c>A|"G"G4||
% abcbook-tune_id 6342d53a57944f0995730441


% abcbook-boost 0
% abcbook-tablature 
% abcbook-transpose 
% abcbook-lastupdated 1665324391528
% abcbook-soundfonts 
% abcbook-repeats 1
% NFF Book 2016

